src/components/UploadZone/IconDragFile/icon-drag-file.svg

<svg width="100" height="80" viewBox="0 0 100 80" fill="none" xmlns="http://www.w3.org/2000/svg">
<path fill-rule="evenodd" clip-rule="evenodd" d="M58.3817 24.1655H58.4929C62.4791 24.1655 65.544 24.1655 67.9765 24.4028C70.4359 24.6427 72.3547 25.1325 74.011 26.1808C75.637 27.2099 77.0143 28.5872 78.0434 30.2132C79.0916 31.8694 79.5815 33.7882 79.8214 36.2476C80.0586 38.6801 80.0586 41.7451 80.0586 45.7313V46.4153C80.0586 50.4015 80.0586 53.4664 79.8214 55.899C79.5815 58.3583 79.0916 60.2772 78.0434 61.9334C77.0143 63.5594 75.637 64.9367 74.011 65.9658C72.3547 67.0141 70.4359 67.5039 67.9765 67.7438C65.544 67.9811 62.4791 67.9811 58.4928 67.9811H58.3817C54.3955 67.9811 51.3305 67.9811 48.898 67.7438C46.4386 67.5039 44.5198 67.0141 42.8636 65.9658C41.2376 64.9367 39.8603 63.5594 38.8312 61.9334C37.7829 60.2772 37.293 58.3583 37.0532 55.899C36.8159 53.4664 36.8159 50.4015 36.8159 46.4153V45.7313C36.8159 41.745 36.8159 38.6801 37.0532 36.2476C37.293 33.7882 37.7829 31.8694 38.8312 30.2132C39.8603 28.5872 41.2376 27.2099 42.8636 26.1808C44.5198 25.1325 46.4386 24.6427 48.898 24.4028C51.3305 24.1655 54.3954 24.1655 58.3817 24.1655ZM49.0921 26.3933C46.7835 26.6185 45.2161 27.0588 43.9332 27.8707C42.5573 28.7415 41.3919 29.9069 40.5211 31.2828C39.7091 32.5657 39.2689 34.1331 39.0437 36.4418C38.817 38.766 38.8159 41.7337 38.8159 45.7869V46.3597C38.8159 50.4128 38.817 53.3806 39.0437 55.7048C39.2689 58.0135 39.7091 59.5809 40.5211 60.8638C41.3919 62.2397 42.5573 63.4051 43.9332 64.2758C45.2161 65.0878 46.7835 65.5281 49.0921 65.7532C51.4164 65.9799 54.3841 65.9811 58.4373 65.9811C62.4904 65.9811 65.4582 65.9799 67.7824 65.7532C70.0911 65.5281 71.6585 65.0878 72.9414 64.2758C74.3172 63.4051 75.4826 62.2397 76.3534 60.8638C77.1654 59.5809 77.6056 58.0135 77.8308 55.7048C78.0575 53.3806 78.0586 50.4128 78.0586 46.3597V45.7869C78.0586 41.7337 78.0575 38.766 77.8308 36.4418C77.6056 34.1331 77.1654 32.5657 76.3534 31.2828C75.4826 29.9069 74.3172 28.7415 72.9414 27.8707C71.6585 27.0588 70.0911 26.6185 67.7824 26.3933C65.4582 26.1666 62.4904 26.1655 58.4373 26.1655C54.3841 26.1655 51.4164 26.1666 49.0921 26.3933Z" fill="#8E9199"/>
<g filter="url(#filter0_b)">
<rect x="20.0588" y="13.1365" width="46.398" height="46.398" rx="12" fill="#e3e3e3"/>
</g>
<defs>
<filter id="filter0_b" x="-3.94116" y="-10.8635" width="94.398" height="94.398" filterUnits="userSpaceOnUse" color-interpolation-filters="sRGB">
<feFlood flood-opacity="0" result="BackgroundImageFix"/>
<feGaussianBlur in="BackgroundImage" stdDeviation="12"/>
<feComposite in2="SourceAlpha" operator="in" result="effect1_backgroundBlur"/>
<feBlend mode="normal" in="SourceGraphic" in2="effect1_backgroundBlur" result="shape"/>
</filter>
</defs>
</svg>

<svg width="100" height="80" fill="none" xmlns="http://www.w3.org/2000/svg"><path fill-rule="evenodd" clip-rule="evenodd" d="M58.382 24.166h.11c3.987 0 7.052 0 9.485.237 2.459.24 4.378.73 6.034 1.778a13 13 0 014.032 4.032c1.049 1.656 1.538 3.575 1.778 6.035.238 2.432.238 5.497.238 9.483v.684c0 3.986 0 7.051-.238 9.484-.24 2.46-.73 4.378-1.778 6.034a13 13 0 01-4.032 4.033c-1.656 1.048-3.575 1.538-6.034 1.778-2.433.237-5.498.237-9.484.237h-.111c-3.986 0-7.051 0-9.484-.237-2.46-.24-4.378-.73-6.034-1.778a13 13 0 01-4.033-4.033c-1.048-1.656-1.538-3.575-1.778-6.034-.237-2.433-.237-5.498-.237-9.484v-.684c0-3.986 0-7.05.237-9.483.24-2.46.73-4.379 1.778-6.035a13 13 0 014.033-4.032c1.656-1.049 3.575-1.538 6.034-1.778 2.432-.237 5.497-.237 9.484-.237zm-9.29 2.227c-2.309.226-3.876.666-5.159 1.478a11 11 0 00-3.412 3.412c-.812 1.283-1.252 2.85-1.477 5.159-.227 2.324-.228 5.292-.228 9.345v.573c0 4.053.001 7.02.228 9.345.225 2.309.665 3.876 1.477 5.159a10.998 10.998 0 003.412 3.412c1.283.812 2.85 1.252 5.16 1.477 2.323.227 5.291.228 9.344.228 4.053 0 7.021-.001 9.345-.228 2.31-.225 3.877-.665 5.16-1.477a11 11 0 003.411-3.412c.812-1.283 1.253-2.85 1.478-5.16.227-2.323.228-5.291.228-9.344v-.573c0-4.053-.001-7.021-.228-9.345-.225-2.309-.666-3.876-1.478-5.16a11 11 0 00-3.412-3.411c-1.282-.812-2.85-1.252-5.159-1.478-2.324-.226-5.292-.227-9.345-.227-4.053 0-7.02 0-9.345.227z" fill="#8E9199"/><g filter="url(#filter0_b)"><rect x="20.059" y="13.136" width="46.398" height="46.398" rx="12" fill="#e3e3e3"/></g><defs><filter id="filter0_b" x="-3.941" y="-10.864" width="94.398" height="94.398" filterUnits="userSpaceOnUse" color-interpolation-filters="sRGB"><feFlood flood-opacity="0" result="BackgroundImageFix"/><feGaussianBlur stdDeviation="12"/><feComposite in2="SourceAlpha" operator="in" result="effect1_backgroundBlur"/><feBlend in="SourceGraphic" in2="effect1_backgroundBlur" result="shape"/></filter></defs></svg>
